resources/svg/skull-2-line.svg

<svg fill="currentColor" viewBox="0 0 24 24" xmlns="http://www.w3.org/2000/svg"><path d="M12 2C17.5228 2 22 6.47715 22 12V15.7639C22 16.5215 21.572 17.214 20.8944 17.5528L18 19V20C18 21.5977 16.7511 22.9037 15.1763 22.9949L14.9499 23.0004C14.9718 22.8926 14.9868 22.7823 14.9943 22.67L15 22.5V22C15 20.9456 14.1841 20.0818 13.1493 20.0055L13 20H11C9.94564 20 9.08183 20.8159 9.00549 21.8507L9 22V22.5C9 22.6714 9.01725 22.8387 9.0501 23.0004L9 23C7.34315 23 6 21.6569 6 20V19L3.10557 17.5528C2.428 17.214 2 16.5215 2 15.7639V12C2 6.47715 6.47715 2 12 2ZM12 4C7.66509 4 4.13546 7.44784 4.00381 11.7508L4 12V15.7639L8 17.7639V19.355L8.07537 19.2711C8.76418 18.5335 9.72777 18.0584 10.7981 18.005L11 18L13.0735 18.0013L13.2964 18.0109C14.2947 18.0846 15.1868 18.5219 15.8452 19.1884L16 19.355V17.7639L20 15.7639V12C20 7.58172 16.4183 4 12 4ZM8 11C9.10457 11 10 11.8954 10 13C10 14.1046 9.10457 15 8 15C6.89543 15 6 14.1046 6 13C6 11.8954 6.89543 11 8 11ZM16 11C17.1046 11 18 11.8954 18 13C18 14.1046 17.1046 15 16 15C14.8954 15 14 14.1046 14 13C14 11.8954 14.8954 11 16 11Z"/></svg>

<svg xmlns="http://www.w3.org/2000/svg" viewBox="0 0 24 24" fill="currentColor">
    <g>
        <path fill="none" d="M0 0h24v24H0z"/>
        <path fill-rule="nonzero" d="M12 2c5.523 0 10 4.477 10 10v3.764a2 2 0 0 1-1.106 1.789L18 19v1a3 3 0 0 1-2.824 2.995L14.95 23a2.5 2.5 0 0 0 .044-.33L15 22.5V22a2 2 0 0 0-1.85-1.995L13 20h-2a2 2 0 0 0-1.995 1.85L9 22v.5c0 .171.017.339.05.5H9a3 3 0 0 1-3-3v-1l-2.894-1.447A2 2 0 0 1 2 15.763V12C2 6.477 6.477 2 12 2zm0 2a8 8 0 0 0-7.996 7.75L4 12v3.764l4 2v1.591l.075-.084a3.992 3.992 0 0 1 2.723-1.266L11 18l2.073.001.223.01c.999.074 1.89.51 2.55 1.177l.154.167v-1.591l4-2V12a8 8 0 0 0-8-8zm-4 7a2 2 0 1 1 0 4 2 2 0 0 1 0-4zm8 0a2 2 0 1 1 0 4 2 2 0 0 1 0-4z"/>
    </g>
</svg>
